_inc/systems/logos/pet.svg

<svg xmlns="http://www.w3.org/2000/svg" viewBox="0 0 3840 1254.6"><path d="M3384.2 158.1h-71.3v204.6h74.4V255.8c0-27.9 17.1-41.9 48.1-41.9s38.8 9.3 40.3 35.6h69.8c0-69.7-9.3-96.1-83.7-96.1-45 0-60.5 9.3-77.5 43.4zm342.6 164.3c-71.3 0-82.1-6.2-82.1-41.9H3840c-3.1-99.2-3.1-122.4-134.9-122.4-111.6 0-136.5 20.1-136.5 108.5 0 82.2 32.6 102.3 122.5 103.9 100.8 0 148.8-4.7 148.8-71.3H3767c-3 15.5-9.2 23.2-40.2 23.2m-83.7-85.2c3.1-21.7 9.3-29.5 58.9-29.5 54.3 0 62 3.1 65.1 29.5zm-2771.8 7.7h74.4c-6.2-69.8-26.4-86.8-130.2-86.8-117.8 0-144.2 18.6-144.2 105.4s24.8 107 134.9 107c116.3 0 139.5-15.5 139.5-88.4h-74.4c0 20.2-7.7 29.5-65.1 29.5-49.6 0-60.5-12.4-60.5-52.7 0-38.8 10.8-38.8 69.8-38.8 43.4 0 51.1 4.7 55.8 24.8m1728.5 12.4c0-83.7-24.8-100.7-144.2-100.7-128.7 0-144.1 21.7-144.1 108.5s21.7 105.4 144.1 105.4c130.2 0 144.2-21.7 144.2-113.2m-212.4 4.7c0-41.9 9.3-46.5 63.6-46.5 60.5 0 71.3 1.5 71.3 46.5 0 41.9-7.8 49.6-65.1 49.6-62.1 0-69.8-6.2-69.8-49.6m880.5-4.7c0-83.7-23.3-100.7-142.6-100.7-127.1 0-142.6 20.1-142.6 107 0 88.4 21.7 107 142.6 107 130.2-.1 142.6-21.8 142.6-113.3m-210.8 4.7c0-41.9 9.3-46.5 63.5-46.5 60.5 0 71.3 1.5 71.3 46.5 0 41.9-7.7 49.6-65.1 49.6-61.9 0-69.7-6.2-69.7-49.6m-1781.2-4.7c0-83.7-23.3-100.7-142.6-100.7-128.7 0-144.2 20.1-144.2 107 0 88.4 21.7 107 144.2 107 130.2-.1 142.6-21.8 142.6-113.3m-209.3 4.7c0-41.9 9.3-46.5 62-46.5 60.5 0 71.3 1.5 71.3 46.5 0 41.9-7.8 49.6-65.1 49.6-60.5 0-68.2-6.2-68.2-49.6M2858.7 71.3v119.4c-17-23.3-32.5-35.6-94.5-35.6-99.2 0-117.8 26.4-117.8 107 0 82.2 26.4 105.4 122.5 105.4 60.5 0 79.1-15.5 93-41.8v37.2h74.4V71.3zm-54.3 142.6c41.8 0 55.8 6.2 55.8 38.7 0 49.6-3.1 54.3-62 54.3s-74.4-1.6-74.4-43.4c0-48 18.6-49.6 80.6-49.6m-1410.7-55.8H1324v204.6h74.4V257.3c0-31 15.5-41.8 57.4-41.8 38.8 0 49.6 13.9 49.6 52.7v94.5h76V254.2c0-29.5 23.2-38.7 58.9-38.7 34.1 0 49.6 9.3 49.6 38.7v108.5h74.4V241.8c0-60.4-37.2-88.4-105.4-88.4-58.9 0-80.6 21.7-88.4 45-15.5-26.4-37.2-45-96.1-45-55.8 0-71.3 18.6-80.6 52.7zm500.7 0h-69.8v204.6h74.4V257.3c0-31 18.6-41.8 55.8-41.8 38.8 0 49.6 12.4 49.6 52.7v94.5h76V254.2c0-29.5 21.7-38.7 57.4-38.7 34.1 0 51.1 10.8 51.1 38.7v108.5h74.4V241.8c0-60.4-37.2-88.4-105.4-88.4-58.9 0-79.1 20.1-88.4 45-15.5-26.4-37.2-45-96.1-45-54.2 0-68.2 18.6-79 52.7zM334.6 388.9a140.5 140.5 0 0 1-68.8 18c-77.7 0-141-63.2-141-141s63.2-141 141-141c25 0 48.4 6.5 68.8 18V9c-21.9-5.9-45-9-68.8-9C119 0 0 119 0 265.9s119 265.9 265.9 265.9c23.8 0 46.8-3.2 68.8-9V388.9Z" style="fill:#fff"/><path d="M334.6 149.8h111.5v106.4H334.6z" style="fill:#fff"/><path d="M566.4 149.8 460 256.2h-49V149.8zM334.6 275.6h111.5V382H334.6z" style="fill:#fff"/><path d="M566.4 381.9 460 275.6h-49v106.3zm841.8 654.1c-64.7 59.5-213.5 51.3-295.6 51.3H849.8v167.3H641.5V570h469.1c38 0 74.9 0 112.9 1 66.7 1 142.7 8.2 193 57.5 47.2 46.2 47.2 147.8 47.2 208.4-.1 64.6-4.2 151.9-55.5 199.1m-247.4-293.6c-16.4 0-33.9-1-50.3-1H849.8v174.5h310c80.1 0 94.4-14.4 94.4-93.4.1-74.9-26.6-79-93.4-80.1m360.3 512.2V570h757.5v161.2h-552.2v99.6h524.5v149.9h-524.5v109.8h556.3v164.2h-761.6Zm1370.3-510.1v510.1h-218.6V744.5h-304.9V570h828.3v174.5z" style="fill:#fff"/></svg>

<?xml version="1.0" encoding="utf-8"?>
<svg version="1.1" viewBox="0 0 3840 1254.6" xmlns="http://www.w3.org/2000/svg">
  <path id="path4595_13_" d="M 3384.2 158.1 L 3312.9 158.1 L 3312.9 362.7 L 3387.3 362.7 L 3387.3 255.8 C 3387.3 227.9 3404.4 213.9 3435.4 213.9 C 3466.4 213.9 3474.2 223.2 3475.7 249.5 L 3545.5 249.5 C 3545.5 179.8 3536.2 153.4 3461.8 153.4 C 3416.8 153.4 3401.3 162.7 3384.3 196.8 L 3384.2 158.1 L 3384.2 158.1 Z M 3726.8 322.4 C 3655.5 322.4 3644.7 316.2 3644.7 280.5 L 3840 280.5 C 3836.9 181.3 3836.9 158.1 3705.1 158.1 C 3593.5 158.1 3568.6 178.2 3568.6 266.6 C 3568.6 348.8 3601.2 368.9 3691.1 370.5 C 3791.9 370.5 3839.9 365.8 3839.9 299.2 L 3767 299.2 C 3764 314.7 3757.8 322.4 3726.8 322.4 Z M 3643.1 237.2 C 3646.2 215.5 3652.4 207.7 3702 207.7 C 3756.3 207.7 3764 210.8 3767.1 237.2 L 3643.1 237.2 Z M 871.3 244.9 L 945.7 244.9 C 939.5 175.1 919.3 158.1 815.5 158.1 C 697.7 158.1 671.3 176.7 671.3 263.5 C 671.3 350.3 696.1 370.5 806.2 370.5 C 922.5 370.5 945.7 355 945.7 282.1 L 871.3 282.1 C 871.3 302.3 863.6 311.6 806.2 311.6 C 756.6 311.6 745.7 299.2 745.7 258.9 C 745.7 220.1 756.5 220.1 815.5 220.1 C 858.9 220.1 866.6 224.8 871.3 244.9 Z M 2599.8 257.3 C 2599.8 173.6 2575 156.6 2455.6 156.6 C 2326.9 156.6 2311.5 178.3 2311.5 265.1 C 2311.5 351.9 2333.2 370.5 2455.6 370.5 C 2585.8 370.5 2599.8 348.8 2599.8 257.3 Z M 2387.4 262 C 2387.4 220.1 2396.7 215.5 2451 215.5 C 2511.5 215.5 2522.3 217 2522.3 262 C 2522.3 303.9 2514.5 311.6 2457.2 311.6 C 2395.1 311.6 2387.4 305.4 2387.4 262 L 2387.4 262 Z M 3267.9 257.3 C 3267.9 173.6 3244.6 156.6 3125.3 156.6 C 2998.2 156.6 2982.7 176.7 2982.7 263.6 C 2982.7 352 3004.4 370.6 3125.3 370.6 C 3255.5 370.5 3267.9 348.8 3267.9 257.3 Z M 3057.1 262 C 3057.1 220.1 3066.4 215.5 3120.6 215.5 C 3181.1 215.5 3191.9 217 3191.9 262 C 3191.9 303.9 3184.2 311.6 3126.8 311.6 C 3064.9 311.6 3057.1 305.4 3057.1 262 Z M 1275.9 257.3 C 1275.9 173.6 1252.6 156.6 1133.3 156.6 C 1004.6 156.6 989.1 176.7 989.1 263.6 C 989.1 352 1010.8 370.6 1133.3 370.6 C 1263.5 370.5 1275.9 348.8 1275.9 257.3 Z M 1066.6 262 C 1066.6 220.1 1075.9 215.5 1128.6 215.5 C 1189.1 215.5 1199.9 217 1199.9 262 C 1199.9 303.9 1192.1 311.6 1134.8 311.6 C 1074.3 311.6 1066.6 305.4 1066.6 262 Z M 2858.7 71.3 L 2858.7 190.7 C 2841.7 167.4 2826.2 155.1 2764.2 155.1 C 2665 155.1 2646.4 181.5 2646.4 262.1 C 2646.4 344.3 2672.8 367.5 2768.9 367.5 C 2829.4 367.5 2848 352 2861.9 325.7 L 2861.9 362.9 L 2936.3 362.9 L 2936.3 71.3 L 2858.7 71.3 L 2858.7 71.3 Z M 2804.4 213.9 C 2846.2 213.9 2860.2 220.1 2860.2 252.6 C 2860.2 302.2 2857.1 306.9 2798.2 306.9 C 2739.3 306.9 2723.8 305.3 2723.8 263.5 C 2723.8 215.5 2742.4 213.9 2804.4 213.9 Z M 1393.7 158.1 L 1324 158.1 L 1324 362.7 L 1398.4 362.7 L 1398.4 257.3 C 1398.4 226.3 1413.9 215.5 1455.8 215.5 C 1494.6 215.5 1505.4 229.4 1505.4 268.2 L 1505.4 362.7 L 1581.4 362.7 L 1581.4 254.2 C 1581.4 224.7 1604.6 215.5 1640.3 215.5 C 1674.4 215.5 1689.9 224.8 1689.9 254.2 L 1689.9 362.7 L 1764.3 362.7 L 1764.3 241.8 C 1764.3 181.4 1727.1 153.4 1658.9 153.4 C 1600 153.4 1578.3 175.1 1570.5 198.4 C 1555 172 1533.3 153.4 1474.4 153.4 C 1418.6 153.4 1403.1 172 1393.8 206.1 L 1393.7 158.1 L 1393.7 158.1 Z M 1894.4 158.1 L 1824.6 158.1 L 1824.6 362.7 L 1899 362.7 L 1899 257.3 C 1899 226.3 1917.6 215.5 1954.8 215.5 C 1993.6 215.5 2004.4 227.9 2004.4 268.2 L 2004.4 362.7 L 2080.4 362.7 L 2080.4 254.2 C 2080.4 224.7 2102.1 215.5 2137.8 215.5 C 2171.9 215.5 2188.9 226.3 2188.9 254.2 L 2188.9 362.7 L 2263.3 362.7 L 2263.3 241.8 C 2263.3 181.4 2226.1 153.4 2157.9 153.4 C 2099 153.4 2078.8 173.5 2069.5 198.4 C 2054 172 2032.3 153.4 1973.4 153.4 C 1919.2 153.4 1905.2 172 1894.4 206.1 L 1894.4 158.1 L 1894.4 158.1 Z" style="fill: rgb(255, 255, 255);"/>
  <path d="M 334.6 388.9 C 314.2 400.3 290.8 406.9 265.8 406.9 C 188.1 406.9 124.8 343.7 124.8 265.9 C 124.8 188.1 188 124.9 265.8 124.9 C 290.8 124.9 314.2 131.4 334.6 142.9 L 334.6 9 C 312.7 3.1 289.6 0 265.8 0 C 119 0 0 119 0 265.9 C 0 412.8 119 531.8 265.9 531.8 C 289.7 531.8 312.7 528.6 334.7 522.8 L 334.7 388.9 Z" style="fill: rgb(255, 255, 255);"/>
  <rect x="334.6" y="149.8" width="111.5" height="106.4" style="fill: rgb(255, 255, 255);"/>
  <polygon points="566.4 149.8 460 256.2 411 256.2 411 149.8" style="fill: rgb(255, 255, 255);"/>
  <rect x="334.6" y="275.6" width="111.5" height="106.4" style="fill: rgb(255, 255, 255);"/>
  <polygon points="566.4 381.9 460 275.6 411 275.6 411 381.9" style="fill: rgb(255, 255, 255);"/>
  <path d="M 1408.2 1036 C 1343.5 1095.5 1194.7 1087.3 1112.6 1087.3 L 849.8 1087.3 L 849.8 1254.6 L 641.5 1254.6 L 641.5 570 L 1110.6 570 C 1148.6 570 1185.5 570 1223.5 571 C 1290.2 572 1366.2 579.2 1416.5 628.5 C 1463.7 674.7 1463.7 776.3 1463.7 836.9 C 1463.6 901.5 1459.5 988.8 1408.2 1036 Z M 1160.8 742.4 C 1144.4 742.4 1126.9 741.4 1110.5 741.4 L 849.8 741.4 L 849.8 915.9 L 1159.8 915.9 C 1239.9 915.9 1254.2 901.5 1254.2 822.5 C 1254.3 747.6 1227.6 743.5 1160.8 742.4 Z" style="fill: rgb(255, 255, 255);"/>
  <path d="M 1521.1 1254.6 L 1521.1 570 L 2278.6 570 L 2278.6 731.2 L 1726.4 731.2 L 1726.4 830.8 L 2250.9 830.8 L 2250.9 980.7 L 1726.4 980.7 L 1726.4 1090.5 L 2282.7 1090.5 L 2282.7 1254.7 L 1521.1 1254.7 Z" style="fill: rgb(255, 255, 255);"/>
  <path d="M 2891.4 744.5 L 2891.4 1254.6 L 2672.8 1254.6 L 2672.8 744.5 L 2367.9 744.5 L 2367.9 570 L 3196.2 570 L 3196.2 744.5 L 2891.4 744.5 Z" style="fill: rgb(255, 255, 255);"/>
</svg>
